X:221
T:Polka du Gers 2
A:Gers
O:France
M:2/4
L:1/8
Q:1/4=140
K:C
Ge cB/2A/2|Ge c2|Bc de/2d/2|1AB AG:|2AB c2|
|eg e2|df d2|ce Gc|1B/2A/2B/2d/2 g2:|2B/2A/2B/2d/2 c2|
|:ga ag/2f/2|eg gf/2e/2|1df dc/2d/2|ec cd/2e/2:|2df AB|c2c2||
